X:1
T:Title
%%score { ( 1 3 4 ) | ( 2 5 ) }
L:1/8
M:4/4
K:Eb
V:1 treble nm="Grand Piano"
V:3 treble 
V:4 treble 
V:2 bass 
V:5 bass 
V:1
 z4 z2[Q:1/4=92] B2 | e2 B2 G2 A>c | B2 G2 E>G B>e | d2 d4 z2 | [Ge]>[Ae] [Ge]4 B2 | e2 B2 G2 A>c | %6
 B2 G2 E2 G2 | z2 f4 z2 |[M:3/4] [E=Ac]2 [DFB]4 |[M:1/4] z2 |[M:4/4] z2 [DA]2 [DA]2 [FAd]>[AB] | %11
 [Ge]2 [Ae]2 [Ge]2 z2 | z2 [EG]2 [EG]2 [Ge]>[Ge] |[M:9/8] [Gd]2 [Gd]- [Gd] [Ad]2- [Ad] B2 | %14
[M:4/4] e2 B2 G2 A>c | B2 G2 E>G B>e | d2 d4 B2 |[M:3/4] [Ge]>[Ae] [Ge]4 |] %18
V:2
 z4 z2 B,2 | E2 B,2 G,2 A,>C | B,2 G,2 E,2 z2 | A>[B,,B,] [D,B,]>[F,B,] B,>B, [B,A]2 | %4
 [E,B,]>[E,C] [E,B,]4 B,2 | E2 B,2 G,2 A,>C | B,2 G,2 E,2 [E,B,E]2 | %7
 (3:2:2D2[K:treble] F (3:2:2[F,F]2[K:bass] [F,C] [F,D]2 F,2 |[M:3/4] F,2 B,,4 | %9
[M:1/4][K:treble] B2 |[M:4/4] f6[K:bass] z2 | [E,B,]2 [E,C]2 [E,B,]2[K:treble] G2 | c6[K:bass] z2 | %13
[M:9/8] [G,=B,]2 [G,B,]- [G,B,] [F,_B,]2- [F,B,] B,2 |[M:4/4] E2 B,2 G,2 A,>C | B,2 G,2 E,2 z2 | %16
 z z/ [B,,B,]/ [D,B,]>[F,B,][K:treble] [B,F]2 [B,DA]>[K:bass]B, |[M:3/4] [E,B,]>[E,C] [E,B,]4 |] %18
V:3
 x8 | x8 | x8 | z z/ A/ A>A A>A B2 | x8 | x8 | x8 | z4 B2 z2 |[M:3/4] x6 |[M:1/4] x2 |[M:4/4] x8 | %11
 x8 | x8 |[M:9/8] x9 |[M:4/4] x8 | x8 | z z/ A/ A>A A2 z z/ A/ |[M:3/4] x6 |] %18
V:4
 x8 | x8 | x8 | x8 | x8 | x8 | x8 | (3FBd (3z B,F z2 [FBd]2 |[M:3/4] x6 |[M:1/4] x2 |[M:4/4] x8 | %11
 x8 | x8 |[M:9/8] x9 |[M:4/4] x8 | x8 | x8 |[M:3/4] x6 |] %18
V:5
 x8 | x8 | x8 | x8 | x8 | x8 | x8 | [F,B,]2[K:treble] z2[K:bass] z4 |[M:3/4] x6 | %9
[M:1/4][K:treble] x2 |[M:4/4] z2[K:bass] B,,2 B,2 B,>B, | x6[K:treble] x2 | %12
 z2[K:bass] C,2 C,2 [C,C]>[C,C] |[M:9/8] x9 |[M:4/4] x8 | x8 | x4[K:treble] x7/2[K:bass] x/ | %17
[M:3/4] x6 |] %18

